src/components/00-materials/icons-raw/upload_outlined.svg

<svg width="24" height="24" viewBox="0 0 24 24" fill="none" xmlns="http://www.w3.org/2000/svg"><path d="M11 14.5v-6H9.83L12 6.33l2.17 2.17H13v6h-2zm-2 2h6v-6h4l-7-7-7 7h4v6zM19 20.5H5v-2h14v2z" fill="currentColor"/></svg>

<svg width="24" height="24" viewBox="0 0 24 24" fill="none" xmlns="http://www.w3.org/2000/svg">
<path d="M11 14.5L11 8.5H9.83L12 6.33L14.17 8.5H13L13 14.5H11ZM9 16.5H15L15 10.5H19L12 3.5L5 10.5H9L9 16.5Z" fill="black"/>
<path d="M19 20.5H5V18.5H19V20.5Z" fill="black"/>
</svg>
